SVG_Azure_All/Controller.svg

<?xml version="1.0" encoding="UTF-8" standalone="no"?>
<!-- Generated by Microsoft Visio, SVG Export Controller.svg Page-1 -->

<svg
   xmlns:dc="http://purl.org/dc/elements/1.1/"
   xmlns:cc="http://creativecommons.org/ns#"
   xmlns:rdf="http://www.w3.org/1999/02/22-rdf-syntax-ns#"
   xmlns:svg="http://www.w3.org/2000/svg"
   xmlns="http://www.w3.org/2000/svg"
   xmlns:sodipodi="http://sodipodi.sourceforge.net/DTD/sodipodi-0.dtd"
   xmlns:inkscape="http://www.inkscape.org/namespaces/inkscape"
   width="0.78745151in"
   height="0.70873773in"
   viewBox="0 0 56.696576 51.029223"
   xml:space="preserve"
   class="st10"
   version="1.1"
   id="svg81"
   sodipodi:docname="Controller.svg"
   style="font-size:12px;overflow:visible;color-interpolation-filters:sRGB;fill:none;fill-rule:evenodd;stroke-linecap:square;stroke-miterlimit:3"
   inkscape:version="0.92.5 (2060ec1f9f, 2020-04-08)"><metadata
   id="metadata87"><rdf:RDF><cc:Work
       rdf:about=""><dc:format>image/svg+xml</dc:format><dc:type
         rdf:resource="http://purl.org/dc/dcmitype/StillImage" /></cc:Work></rdf:RDF></metadata><defs
   id="defs85" /><sodipodi:namedview
   pagecolor="#ffffff"
   bordercolor="#666666"
   borderopacity="1"
   objecttolerance="10"
   gridtolerance="10"
   guidetolerance="10"
   inkscape:pageopacity="0"
   inkscape:pageshadow="2"
   inkscape:window-width="640"
   inkscape:window-height="480"
   id="namedview83"
   showgrid="false"
   inkscape:zoom="1.8195051"
   inkscape:cx="37.795228"
   inkscape:cy="19.499465"
   inkscape:window-x="0"
   inkscape:window-y="0"
   inkscape:window-maximized="0"
   inkscape:current-layer="svg81" />
	<style
   type="text/css"
   id="style2">
	<![CDATA[
		.st1 {fill:#a0a1a2;stroke:none;stroke-linecap:butt;stroke-width:12.24}
		.st2 {fill:#7a7a7a;stroke:none;stroke-linecap:butt;stroke-width:12.24}
		.st3 {fill:#3e3e3e;stroke:none;stroke-linecap:butt;stroke-width:12.24}
		.st4 {fill:#e5e5e5;stroke:none;stroke-linecap:butt;stroke-width:12.24}
		.st5 {fill:#0070c9;stroke:none;stroke-linecap:butt;stroke-width:12.24}
		.st6 {fill:#000e92;stroke:none;stroke-linecap:butt;stroke-width:12.24}
		.st7 {fill:#ffffff;stroke:none;stroke-linecap:butt;stroke-width:12.24}
		.st8 {fill:#ffffff;fill-opacity:0.25;stroke:none;stroke-linecap:butt;stroke-width:12.24}
		.st9 {fill:#3e3e3e;fill-opacity:0.2;stroke:none;stroke-linecap:butt;stroke-width:12.24}
		.st10 {fill:none;fill-rule:evenodd;font-size:12px;overflow:visible;stroke-linecap:square;stroke-miterlimit:3}
	]]>
	</style>

	<g
   id="g79"
   transform="translate(-12.24,-12.2351)">
		<title
   id="title4">Page-1</title>
		<g
   id="group6053-1"
   transform="translate(12.24,-34.0157)">
			<title
   id="title6">Controller</title>
			<g
   id="shape6054-2"
   transform="translate(14.4,-29.1892)">
				<title
   id="title8">polygon4</title>
				<path
   d="M 0.11,97.28 13.72,91.76 V 75.44 L 0,81.08 Z"
   class="st1"
   id="path10"
   inkscape:connector-curvature="0"
   style="fill:#a0a1a2;stroke:none;stroke-width:12.23999977;stroke-linecap:butt" />
			</g>
			<g
   id="shape6055-4"
   transform="translate(28.1197,-23.5582)">
				<title
   id="title13">polygon6</title>
				<path
   d="M 13.49,74.76 0,69.81 v 0.23 27.24 l 13.49,-5.63 z"
   class="st2"
   id="path15"
   inkscape:connector-curvature="0"
   style="fill:#7a7a7a;stroke:none;stroke-width:12.23999977;stroke-linecap:butt" />
			</g>
			<g
   id="shape6056-6"
   transform="translate(14.5134,-23.5582)">
				<title
   id="title18">polygon8</title>
				<path
   d="M 27.1,91.65 13.61,97.28 0,91.65 13.61,86.25 Z"
   class="st3"
   id="path20"
   inkscape:connector-curvature="0"
   style="fill:#3e3e3e;stroke:none;stroke-width:12.23999977;stroke-linecap:butt" />
			</g>
			<g
   id="shape6057-8"
   transform="translate(0,-5.63099)">
				<title
   id="title23">polygon10</title>
				<path
   d="m 0,97.28 13.72,-5.4 V 75.44 L 0,82.45 Z"
   class="st1"
   id="path25"
   inkscape:connector-curvature="0"
   style="fill:#a0a1a2;stroke:none;stroke-width:12.23999977;stroke-linecap:butt" />
			</g>
			<g
   id="shape6058-10"
   transform="translate(13.6063)">
				<title
   id="title28">polygon12</title>
				<path
   d="M 13.61,76.02 0.11,69.81 v 0.23 L 0,97.28 13.61,91.65 Z"
   class="st2"
   id="path30"
   inkscape:connector-curvature="0"
   style="fill:#7a7a7a;stroke:none;stroke-width:12.23999977;stroke-linecap:butt" />
			</g>
			<g
   id="shape6059-12">
				<title
   id="title33">polygon14</title>
				<path
   d="M 27.21,91.65 13.72,97.28 0,91.65 13.72,86.25 Z"
   class="st3"
   id="path35"
   inkscape:connector-curvature="0"
   style="fill:#3e3e3e;stroke:none;stroke-width:12.23999977;stroke-linecap:butt" />
			</g>
			<g
   id="shape6060-14"
   transform="translate(29.4803,-5.63099)">
				<title
   id="title38">polygon16</title>
				<path
   d="m 0,97.28 13.72,-5.4 V 75.44 L 0,81.77 Z"
   class="st4"
   id="path40"
   inkscape:connector-curvature="0"
   style="fill:#e5e5e5;stroke:none;stroke-width:12.23999977;stroke-linecap:butt" />
			</g>
			<g
   id="shape6061-16"
   transform="translate(43.0866)">
				<title
   id="title43">polygon18</title>
				<path
   d="M 13.61,76.02 0.11,69.81 v 0.23 L 0,97.28 13.61,91.65 Z"
   class="st1"
   id="path45"
   inkscape:connector-curvature="0"
   style="fill:#a0a1a2;stroke:none;stroke-width:12.23999977;stroke-linecap:butt" />
			</g>
			<g
   id="shape6062-18"
   transform="translate(29.4803)">
				<title
   id="title48">polygon20</title>
				<path
   d="M 27.21,91.65 13.72,97.28 0,91.65 13.72,86.25 Z"
   class="st5"
   id="path50"
   inkscape:connector-curvature="0"
   style="fill:#0070c9;stroke:none;stroke-width:12.23999977;stroke-linecap:butt" />
			</g>
			<g
   id="shape6063-20"
   transform="translate(34.0157,-7.69951)">
				<title
   id="title53">path22</title>
				<path
   d="M 16.78,97.28 H 1.47 C 0.68,97.28 0,96.59 0,95.79 v -10 c 0,-0.81 0.57,-1.38 1.36,-1.38 h 15.31 c 0.79,0 1.47,0.69 1.47,1.49 v 9.89 c 0.12,0.8 -0.57,1.49 -1.36,1.49 z"
   class="st6"
   id="path55"
   inkscape:connector-curvature="0"
   style="fill:#000e92;stroke:none;stroke-width:12.23999977;stroke-linecap:butt" />
			</g>
			<g
   id="shape6064-22"
   transform="translate(35.4898,-8.84869)">
				<title
   id="title58">polygon24</title>
				<path
   d="M 5.1,97.28 0,92.11 l 5.22,-5.06 1.02,1.04 -4.31,4.02 4.08,4.25 z"
   class="st7"
   id="path60"
   inkscape:connector-curvature="0"
   style="fill:#ffffff;stroke:none;stroke-width:12.23999977;stroke-linecap:butt" />
			</g>
			<g
   id="shape6065-24"
   transform="translate(44.4472,-8.84869)">
				<title
   id="title63">polygon26</title>
				<path
   d="M 1.02,97.28 6.12,92.11 0.91,87.05 0,88.09 4.2,92.11 0.11,96.36 Z"
   class="st7"
   id="path65"
   inkscape:connector-curvature="0"
   style="fill:#ffffff;stroke:none;stroke-width:12.23999977;stroke-linecap:butt" />
			</g>
			<g
   id="shape6066-26"
   transform="translate(34.1291,-7.69951)">
				<title
   id="title68">path28</title>
				<path
   d="M 11.91,84.41 H 1.25 C 0.45,84.41 0,85.21 0,85.79 V 95.9 c 0,0.57 0.57,1.38 1.36,1.38 h 4.08 z"
   class="st8"
   id="path70"
   inkscape:connector-curvature="0"
   style="fill:#ffffff;fill-opacity:0.25;stroke:none;stroke-width:12.23999977;stroke-linecap:butt" />
			</g>
			<g
   id="shape6067-28"
   transform="translate(35.263,-20.5703)">
				<title
   id="title73">polygon30</title>
				<path
   d="m 0,97.28 7.48,-1.84 7.94,1.84 z"
   class="st9"
   id="path75"
   inkscape:connector-curvature="0"
   style="fill:#3e3e3e;fill-opacity:0.2;stroke:none;stroke-width:12.23999977;stroke-linecap:butt" />
			</g>
		</g>
	</g>
</svg>

<?xml version="1.0" encoding="UTF-8" standalone="no"?>
<!DOCTYPE svg PUBLIC "-//W3C//DTD SVG 1.1//EN" "http://www.w3.org/Graphics/SVG/1.1/DTD/svg11.dtd">
<!-- Generated by Microsoft Visio, SVG Export Controller.svg Page-1 -->
<svg xmlns="http://www.w3.org/2000/svg" xmlns:xlink="http://www.w3.org/1999/xlink" xmlns:ev="http://www.w3.org/2001/xml-events"
		width="1.1274in" height="1.3511in" viewBox="0 0 81.1729 97.2794" xml:space="preserve" color-interpolation-filters="sRGB"
		class="st10">
	<style type="text/css">
	<![CDATA[
		.st1 {fill:#a0a1a2;stroke:none;stroke-linecap:butt;stroke-width:12.24}
		.st2 {fill:#7a7a7a;stroke:none;stroke-linecap:butt;stroke-width:12.24}
		.st3 {fill:#3e3e3e;stroke:none;stroke-linecap:butt;stroke-width:12.24}
		.st4 {fill:#e5e5e5;stroke:none;stroke-linecap:butt;stroke-width:12.24}
		.st5 {fill:#0070c9;stroke:none;stroke-linecap:butt;stroke-width:12.24}
		.st6 {fill:#000e92;stroke:none;stroke-linecap:butt;stroke-width:12.24}
		.st7 {fill:#ffffff;stroke:none;stroke-linecap:butt;stroke-width:12.24}
		.st8 {fill:#ffffff;fill-opacity:0.25;stroke:none;stroke-linecap:butt;stroke-width:12.24}
		.st9 {fill:#3e3e3e;fill-opacity:0.2;stroke:none;stroke-linecap:butt;stroke-width:12.24}
		.st10 {fill:none;fill-rule:evenodd;font-size:12px;overflow:visible;stroke-linecap:square;stroke-miterlimit:3}
	]]>
	</style>

	<g>
		<title>Page-1</title>
		<g id="group5934-1" transform="translate(12.24,-34.0157)">
			<title>Controller</title>
			<g id="shape5935-2" transform="translate(14.4,-29.1892)">
				<title>polygon4</title>
				<path d="M0.11 97.28 L13.72 91.76 L13.72 75.44 L0 81.08 L0.11 97.28 Z" class="st1"/>
			</g>
			<g id="shape5936-4" transform="translate(28.1197,-23.5582)">
				<title>polygon6</title>
				<path d="M13.49 74.76 L0 69.81 L0 70.04 L0 97.28 L13.49 91.65 L13.49 74.76 Z" class="st2"/>
			</g>
			<g id="shape5937-6" transform="translate(14.5134,-23.5582)">
				<title>polygon8</title>
				<path d="M27.1 91.65 L13.61 97.28 L0 91.65 L13.61 86.25 L27.1 91.65 Z" class="st3"/>
			</g>
			<g id="shape5938-8" transform="translate(0,-5.63099)">
				<title>polygon10</title>
				<path d="M0 97.28 L13.72 91.88 L13.72 75.44 L0 82.45 L0 97.28 Z" class="st1"/>
			</g>
			<g id="shape5939-10" transform="translate(13.6063,2.55795E-13)">
				<title>polygon12</title>
				<path d="M13.61 76.02 L0.11 69.81 L0.11 70.04 L0 97.28 L13.61 91.65 L13.61 76.02 Z" class="st2"/>
			</g>
			<g id="shape5940-12">
				<title>polygon14</title>
				<path d="M27.21 91.65 L13.72 97.28 L0 91.65 L13.72 86.25 L27.21 91.65 Z" class="st3"/>
			</g>
			<g id="shape5941-14" transform="translate(29.4803,-5.63099)">
				<title>polygon16</title>
				<path d="M0 97.28 L13.72 91.88 L13.72 75.44 L0 81.77 L0 97.28 Z" class="st4"/>
			</g>
			<g id="shape5942-16" transform="translate(43.0866,2.55795E-13)">
				<title>polygon18</title>
				<path d="M13.61 76.02 L0.11 69.81 L0.11 70.04 L0 97.28 L13.61 91.65 L13.61 76.02 Z" class="st1"/>
			</g>
			<g id="shape5943-18" transform="translate(29.4803,0)">
				<title>polygon20</title>
				<path d="M27.21 91.65 L13.72 97.28 L0 91.65 L13.72 86.25 L27.21 91.65 Z" class="st5"/>
			</g>
			<g id="shape5944-20" transform="translate(34.0157,-7.69951)">
				<title>path22</title>
				<path d="M16.78 97.28 L1.47 97.28 C0.68 97.28 0 96.59 0 95.79 L0 85.79 C0 84.98 0.57 84.41 1.36 84.41 L16.67 84.41
							 C17.46 84.41 18.14 85.1 18.14 85.9 L18.14 95.79 C18.26 96.59 17.57 97.28 16.78 97.28 Z" class="st6"/>
			</g>
			<g id="shape5945-22" transform="translate(35.4898,-8.84869)">
				<title>polygon24</title>
				<path d="M5.1 97.28 L0 92.11 L5.22 87.05 L6.24 88.09 L1.93 92.11 L6.01 96.36 L5.1 97.28 Z" class="st7"/>
			</g>
			<g id="shape5946-24" transform="translate(44.4472,-8.84869)">
				<title>polygon26</title>
				<path d="M1.02 97.28 L6.12 92.11 L0.91 87.05 L0 88.09 L4.2 92.11 L0.11 96.36 L1.02 97.28 Z" class="st7"/>
			</g>
			<g id="shape5947-26" transform="translate(34.1291,-7.69951)">
				<title>path28</title>
				<path d="M11.91 84.41 L1.25 84.41 C0.45 84.41 0 85.21 0 85.79 L0 95.9 C0 96.47 0.57 97.28 1.36 97.28 L5.44 97.28
							 L11.91 84.41 Z" class="st8"/>
			</g>
			<g id="shape5948-28" transform="translate(35.263,-20.5703)">
				<title>polygon30</title>
				<path d="M0 97.28 L7.48 95.44 L15.42 97.28 L0 97.28 Z" class="st9"/>
			</g>
		</g>
	</g>
</svg>
